X:680
T:Tell Her I Am
M:6/8
L:1/8
K:DMix
B/d/|: edB GFG|DED GFG|DED c2A|BGE EBd|
edB GFG|DED GFG|AGF GBA|1 GFE D2 B/d/:|2 GFE D2 d||
|BAB dBG|BAB dBG|ABA ABA|AGF E2d|
BAB deg|age d2B|BAF GBA|GFE D2 d:|
|:efg efg|dBG AGE|A2 a aga|bag e2 d|
|1 efg efg|dBG AGE|agf gba|gfe d^cd:|
|2 def gba|gfe d2B|BAF GBA|GFE D2 B/d/||
